X:1
T:Title
%%score [ ( 1 2 ) ( 3 4 ) ] { ( 5 6 ) | ( 7 8 ) }
L:1/8
Q:1/4=120
M:4/4
K:F
V:1 treble nm="Midi_74"
V:2 treble 
V:3 bass nm="Midi_74"
V:4 bass 
V:5 treble nm="Org."
V:6 treble 
V:7 bass 
V:8 bass 
V:1
 A8 | G4 A4 | B8 || d8 | c4 (B2 A2) | G4 F4 | E8 || G8 | d4 c4 | e8 || f8 | B4 d4 | %12
"^John Camidge\n(1790-1859)" G4 (c3 B) | A8 |] %14
V:2
 F8 | G4 F4 | F8 || F8 | F4 (F2 E2) | D4 D4 | C8 || E8 | E4 F4 | B8 || (A6 F2) | F4 F4 | F4 E4 | %13
 F8 |] %14
V:3
 C8 | C4 C4 | B,8 || B,8 | A,4 (D2 C2) | B,4 _A,4 | G,8 || C8 | C4 C4 | C8 || C8 | B,4 F,4 | %12
 F,4 G,4 | A,8 |] %14
V:4
 F,8 | E,4 _E,4 | D,8 || B,,8 | A,,4 (D,2 C,2) | B,,4 =B,,4 | C,8 || C8 | B,4 A,4 | G,8 || F,8 | %11
 D,4 B,,4 | C,4 C,4 | F,8 |] %14
V:5
 A8 | G4 A4 | B8 || d8 | c4 B2 A2 | G4 F4 | E8 || G8 | d4 c4 | e8 || [cf]8 | B4 d4 | [CFG]4 c3 B | %13
 A8 |] %14
V:6
 F8 | G4 [CF]4 | [B,F]8 || F8 | F4 [B,F]2 [CE]2 | D4 D4 | C8 || E8 | E4 F4 | [Bc]8 || A6 F2 | %11
 F4 [DF]4 | x4 [CEG]4 | [CF]8 |] %14
V:7
"^8 vi" x8 | %1
"^Two discrepancies: bar 5 beat 4 alto in organ part is F; bar 6 beat 3 tenor in organ part is G." x8 | %2
 x8 || x8 | x8 | x4 _A,4 | G,8 || x8 | x8 | x8 || x8 | x8 | x8 | x8 |] %14
V:8
 F,8 | E,4 _E,4 | D,8 || B,,8 | A,,4 D,2 C,2 | B,,4 =B,,4 | C,8 || [C,C]8 | [B,,B,]4 [A,,A,]4 | %9
 [G,,G,]8 || [F,,F,]8 | [D,,D,]4 [B,,,B,,]4 | [C,,C,]4 [C,,C,]4 | [F,,F,]8 |] %14

